X:1
T:Dragonsong
T:Dragonsong
T:Copyright © 
T:Copyright © 
T:Copyright © 
T:Copyright © 
T:Copyright © 
Z:Copyright ©
%%score { ( 1 4 ) | ( 2 3 ) }
L:1/8
M:4/4
K:B
V:1 treble nm="Piano" snm="Pno."
V:4 treble 
V:2 treble 
V:3 treble 
V:1
 !arpeggio![dgb]agf [fg]4 | [ceg]fec [FBd]2 [FAc]2 | [DGB]ABd [FAc]2 AF | [CFG]4 [CFG]2 [D=GA]2 | %4
 [DGB]AGF [FG]4 | [CEG]FEC [F,B,D]2 [F,A,C]2 | [D,G,B,]A,B,D C2 [A,CF]2 | [B,FG]4 DEBd | g8 | %9
 BABd c2 AF | G8 | Bcdg- gf^ec | d4 x2 df | g2 a2 f3 d | edeg f2 dc | B4 z G AB | %16
 c2 EC [G,A,D]2 =G,A | BABd c2 AF | G4 B,D GA | Bcdg- gf^ec | d4 z2 df | g2 a2 f3 d | ed eg f4 | %23
 BABd c2 AF | G4 DGBd | !arpeggio![Bdg]8 | d2 f2 ^e4 | z d fg ^ed c2 | d8- | d8 | d2 f2 ^e4 | %31
 z d fg ^ed c2 | d8- | [=Gd]6 df | g2 a2 f3 d | ed eg f4 | BABd c2 AF | G4 DGAB | %38
 !arpeggio![dgb]agf [fg]4 | [ceg]fec [FBd]2 [FAc]2 | [DGB]ABd [FAc]2 AF | [CFG]4 [CFG]2 [D=GA]2 | %42
 [DGB]AGF [FG]4 | [CEG]FEC [F,B,D]2 [F,A,C]2 | [D,G,B,]A,B,D C2 [A,CF]2 | [B,FG]4 DEBd | g8 | %47
 [Bb]3 [cc'] [dd']2 [ff']2 | [cc']4 z2 [Bb][Aa] | [Gg]4 z2 [Ff][Gg] | [Gg]4 z2 z [Aa] | %51
 [Bb]3 [cc'] [dd']2 [ff']2 | [cc']4 z2 z [Bb] | [cc']3 [dd'] [ee']2 [gg']2 | %54
 [dfad']2 [CFA]2 [DG^B]2 [dg^bd']2 | [gbe'g']4 B,EGA | [EGB]4 [gbd'g']2 [fac'f']2 | %57
 [dfad']6 [cfac']2 | [Bdgb]4 z2 [fac'f']2 | [gbe'g']4 B,EGA | [EGB]4 [gbd'g']2 [fac'f']2 | %61
 [gc'e'g']4 A,DGA | [DG^B]2 [^EAc]2 [FBd]2 [dg^bd']2 | [gbe'g']4 B,EGA | %64
 [EGB]4 [gbd'g']2 [fac'f']2 | [dfad']3 [fad'f']- [fad'f']2 [dfad']2- | [dfad']6 [dfad']2 | %67
 [gbe'g']4 B,EGd | [EGc]4 [bd'f'b']2 [ac'f'a']2 | [gbd'g']8 | [G,B,D]3 [G,C^E]- [G,CE]4 | %71
 [G,DF]3 [G,C^E]- [G,CE]4 | [G,DF]2 [G,C^E]2 [G,B,D]2 [Cc][B,B]/[Cc]/ | [DGBd]3 [G,C^E]- [G,CE]4 | %74
 [G,B,D]4 [G,C^E]2 [G,B,C]2 | [B,DG]4 [F,A,D]2 F2 | [G,CE]2 D2 [F,A,C]2 B,2 ||[K:Eb] B,6 DF | %78
 [B,EG]2 G,2 [G,B,]2 [G,B,E]2 | [CEG]3 [EGB] [EGB]2 [Ec]2 | [CFB]4 =A4 || %81
[K:Db] [dd'][cc'][dd'][ff'] [ee']2 [cc'][Aa] | [Bb]2 D/F/B/c/ d/c/B/F/ x2 | %83
 [dd'][ee'][ff'][bb']- [bb'][aa'][=g=g'][ee'] | [ff']4 z2 [ff'][aa'] | %85
 [bb']2 [c'c'']2 [aa']3 [ff'] | [gg'][ff'][gg'][bb'] [aa']4 | %87
 [dd'][cc'][dd'][ff'] [ee']2 [cc'][Aa] | [Bb]4 z2 [ff'][aa'] | [bb']2 [c'c'']2 [aa']3 [ff'] | %90
 [gg'][ff'][gg'][bb']- [bb'] [aa']3 | [dd'][cc'][dd'][ff'] [ee']3 [dd'] | %92
 [ee'][=d=d'][ee'][aa'] [ff']2 F/B/d/f/ | [gg'][ff'][gg'][bb'] [aa']2 [ff']2 | %94
 [bd'g'b']2 [F,B,E]2 [DGB]2 [dgb]2 | [d'f'b']2 z2 [d'd'']2 [c'c'']2 | %96
 !arpeggio![d'f'b']c'ba [ab]4 | [egb]age [Adf]2 [Ace]2 | [FBd]cdf [Ace]2 cA | %99
 [EAB]4 [EAB]2 [F=Ac]2 | !arpeggio![dfbd'][cc'][Bb][Aa] [Bb]4 | %101
 !arpeggio![Gegb][Aa] [Gg][Ee] [Ff]2 [F,A,E]2 | !arpeggio![DGBd][Cc] [Dd][Ff] [EAce]2 [Acea]2 | %103
 [Beb]4 F,B,EF | [F,B,C=D]8- | [F,B,CD]8 | z8 |] %107
V:2
 x8 | x8 | x8 | x8 | x8 | x8 | x8 | x8 | z8 | x8 | x8 | x8 | x4 x4 | x8 | x4 x2 x2 | x8 | %16
 x4 x2 x2 | x8 | z4 x x x2 | x8 | x4 x2 x x | z8 | z2 E2 z4 | x4 x2 x x | x4 x x x x | z8 | z8 | %27
 z8 | z8 | x8 | z8 | z8 | x4 z4 | x8 | z8 | x2 x x x4 | x4 x2 x x | x8 | z8 | x8 | z8 | z8 | z8 | %43
 x8 | x8 | x8 | z8 | z2 z z z4 | x8 | x4 x4 | z8 | x2 x x x4 | x8 | x8 | x4 x2 x2 | x4 x4 | x8 | %57
 x8 | x8 | x4 z4 | x8 | x4 x4 | x x x x x4 | z4 z4 | z8 | x4 x2 x2 | z8 | x4 z4 | z8 | x8 | z8 | %71
 x8 | z4 z2 z2 | z8 | x8 | x8 | x8 ||[K:Eb] x x x2 x4 | x8 | x4 x2 x2 | F,,8 ||[K:Db] x8 | %82
 x2 x2 x2 x2 | z8 | F,,8 | x8 | z8 | x8 | z8 | z8 | z8 | z8 | x4 x2 x2 | x8 | z8 | x8 | x8 | x8 | %98
 x8 | x8 | x x x2 x4 | x x x x x4 | x x x x x4 | z4 x4 | z8 | z8 | z8 |] %107
V:3
 G,DGA [EB]4 | C,G,EG, [B,,B,]2 [F,,F,]2 | E,,B,, E,2 F,, C,3 | C,,G,,C,G,, C,2 [=G,,=G,]2 | %4
 G,,D,G,A, [E,B,]4 | C,,G,,C,G,, B,,2 F,,2 | C,,G,,C,G, D,,A,, D,2 | E,,B,,F,G, z4 | x8 | %9
 [G,B,D]4 [G,CE]2 [F,A,C]2 | [G,B,D]8 | [G,B,D]4 [G,C^E]4 | D,,A,,D,G, F,4 | E,B, G2 D,B, F2 | %14
 C,G,EG, G,,D, B,2 | C,G,C^E- E4 | =A,,E,=A,E, D,2 D,,2 | G,,D,B,D, C,G, C2 | G,,D, G,A, x2 z2 | %19
 G,,D,B,D, C,G, ^E2 | D,,2 D,G, F,4 | E,B, G2 D,B, F2 | C,G, x2 G,,D, B,2 | E,,B,,G,D F,,C, A,2 | %24
 G,,D,G,B, z4 | x8 | B,,F,DF, C,G, ^E2 | B,,F,DF, C,G, ^E2 | G,,D,G,C- CD,G,C | %29
 G,,D,G,^B,- B,2 G,,A,, | B,,F,DF, C,G, ^E2 | B,,F,DF, C,G, ^E2 | D,,A,, D,G, z4 | %33
 [D,A,D]6 [D,,D,]2 | E,B, G2 E,B, F2 | C,G,E z G,,D, B,2 | E,,B,,G,D F,,C, A,2 | G,,D,G,B, z z z2 | %38
 G,DGA [EB]4 | C,G,EG, [B,,B,]2 [F,,F,]2 | E,,B,, E,2 F,, C,3 | C,,G,,C,G,, C,2 [=G,,=G,]2 | %42
 G,,D,G,A, [E,B,]4 | C,,G,,C,G,, B,,2 F,,2 | C,,G,,C,G, D,,A,, D,2 | E,,B,,F,G, z4 | x8 | %47
 B,,F,B,D FDB,F, | A,,F,A,C F4 | E,,B,, G,2 F,,4 | C,,G,,C,^E, G,2 C2 | B,,F,B,D FDB,F, | %52
 A,,F,A,C F4 | =A,,E,=A,C ECA,E, | D,,A,, F,2 [G,,G,]D, [G,,,G,,]2 | E,,B,, E,G, z4 | %56
 C,B, C2 [F,,F,]2 [A,CF]2 | D,,A,,D,F, A,C F2 | G,,D,G,A, B,2 [F,,F,]2 | E,,B,, E,G, z4 | %60
 C,G, C2 [F,,F,]2 [A,CF]2 | D,,A,, D,G, z4 | [G,,G,]D,[A,,A,]^E, [^B,,^B,]2 [G,,G,]2 | %63
 E,,B,, E,G, z4 | C,G, C2 [F,,F,]2 [A,CF]2 | D,,A,,D,F, A,C F2 | G,,D,G,A, B,2 [F,,F,]2 | %67
 E,,B,, E,G, z4 | [C,G,C]4 [A,CF]2 [F,,F,]2 | [G,,,G,,]8 | [G,,D,]8 | %71
 [G,,D,]2 [G,,D,]2 [G,,^E,]2 [G,,E,]2 | [G,,F,]2 [G,,F,]2 [G,,^E,]2 [G,,E,]2 | [G,,,G,,]8 | %74
 [G,,F,]2 [G,,F,]2 [G,,^E,]2 [G,,E,]2 | [E,,E,]4 [D,,D,]4 | [C,,C,]4 [B,,,B,,]4 || %77
[K:Eb] B,,,F,,B,,D, F,B, z2 | [E,,E,]B,,[E,,E,]B,, [E,,E,]B,,[E,,E,]B,, | C,,G,,C,E, G,C z2 | %80
 z F, B,C [F,=A,]4 ||[K:Db] B,,/F,/B,/D/ F/D/B,/F,/ E,/G,/B,/E/ A,,/E,/A,/C/ | %82
 B,,/F,/B,/E/ z2 z2 D/C/B,/F,/ | B,,/F,/B,/^C/ F/C/B,/F,/ E,/=G,/B,/E/ =G/E/B,/^F,/ | %84
 x z B,C [A,CF]4 | G,/B,/D/G/ B/G/D/B,/ F,/A,/D/F/ A/F/D/A,/ | %86
 E,/G,/B,/E/ G/E/B,/G,/ E,/A,/D/F/ A/F/D/A,/ | G,,/D,/G,/B,/ D/B,/G,/D,/ A,,/E,/A,/C/ E/C/A,/E,/ | %88
 B,,,F,,B,,D, F,/B,/D/F/ B/F/D/B,/ | G,/B,/D/G/ B/G/D/B,/ F,/A,/D/F/ A/F/D/A,/ | %90
 E,/G,/B,/E/ G/E/B,/G,/ D,/A,/D/F/ A/F/D/A,/ | G,,/D,/G,/B,/ D/B,/G,/D,/ A,,/E,/A,/C/ E/C/A,/E,/ | %92
 F,,/C,/F,/A,/ C/A,/F,/C,/ B,,/F,/B,/=D/ z2 | E,/G,/B,/E/ G/E/B,/G,/ F,/A,/C/F/ F,,/C,/F,/A,/ | %94
 [G,,,G,,]8- | [G,,,G,,]2 z2 z2 z2 | B,FBc [^F^c]4 | E,B,EB, [D,D]2 [A,,A,]2 | G,,D, G,2 A,, E,3 | %99
 E,,B,,E,B,, =G,2 [=A,,=A,]2 | B,,F,B,C [G,D]4 | E,,B,,E,B,, [D,D]2 [A,,E,]2 | %102
 G,,D,G,D, [A,,A,]2 [F,,F,]2 | B,,,F,, B,,E, z4 | [B,,,B,,]8- | [B,,,B,,]8 | x8 |] %107
V:4
 x8 | x8 | x8 | x8 | x8 | x8 | x8 | x8 | x8 | x8 | z8 | x8 | z4 [A,D]4 | x8 | x8 | x8 | x8 | x8 | %18
 x8 | x8 | z4 [A,D]4 | x8 | x8 | x8 | x8 | x8 | x8 | x8 | x8 | ^B,2 x2 x4 | x8 | x8 | z4 A,DGA | %33
 x8 | x8 | x8 | x8 | x8 | x8 | x8 | x8 | x8 | x8 | x8 | x8 | x8 | x8 | x8 | x8 | z2 z D [G,A,C]4 | %50
 x8 | x8 | x8 | x8 | x8 | x8 | x8 | x8 | x8 | x8 | x8 | x8 | x4 x4 | x8 | x8 | x8 | x8 | x8 | x8 | %69
 x8 | x8 | x8 | x8 | x8 | x8 | x8 | x8 ||[K:Eb] x8 | x8 | x8 | x8 ||[K:Db] x8 | x8 | x8 | x8 | x8 | %86
 x8 | x8 | x8 | x8 | x8 | x8 | x8 | x8 | x8 | x8 | x8 | x8 | x8 | x8 | x8 | x8 | x8 | x8 | x8 | %105
 x8 | x8 |] %107

